public/img/HOW/Feedback.svg

<?xml version="1.0" encoding="UTF-8"?>
<svg width="140px" height="160px" viewBox="0 0 140 160" version="1.1" xmlns="http://www.w3.org/2000/svg" xmlns:xlink="http://www.w3.org/1999/xlink">
    <!-- Generator: Sketch 42 (36781) - http://www.bohemiancoding.com/sketch -->
    <title>Feedback</title>
    <desc>Created with Sketch.</desc>
    <defs>
        <path d="M2.19735099,0.762573099 L35.1038411,0.762573099 C36.247947,0.769122807 37.1713907,1.70760234 37.1713907,2.86128655 L37.1713907,24.5071345 C37.1713907,25.6664327 36.2405298,26.6049123 35.0917881,26.6049123 L24.4490066,26.6049123 L19.2143046,31.888655 L13.981457,26.6049123 L2.19735099,26.6049123 C1.04860927,26.6049123 0.117748344,25.6664327 0.117748344,24.5071345 L0.117748344,2.86128655 C0.117748344,1.7019883 1.04860927,0.762573099 2.19735099,0.762573099 Z M25.4512583,13.9555556 C25.4512583,15.2683041 26.5035762,16.3312281 27.8043709,16.3312281 C29.1042384,16.3312281 30.1584106,15.2683041 30.1584106,13.9555556 C30.1584106,12.642807 29.1042384,11.5808187 27.8043709,11.5808187 C26.5035762,11.5808187 25.4512583,12.642807 25.4512583,13.9555556 Z M16.2974834,13.9555556 C16.2974834,15.2683041 17.3516556,16.3312281 18.6496689,16.3312281 C19.9504636,16.3312281 21.0055629,15.2683041 21.0055629,13.9555556 C21.0055629,12.642807 19.9504636,11.5808187 18.6496689,11.5808187 C17.3516556,11.5808187 16.2974834,12.642807 16.2974834,13.9555556 Z M7.14370861,13.9555556 C7.14370861,15.2683041 8.19695364,16.3312281 9.49774834,16.3312281 C10.798543,16.3312281 11.8508609,15.2683041 11.8508609,13.9555556 C11.8508609,12.642807 10.798543,11.5808187 9.49774834,11.5808187 C8.19695364,11.5808187 7.14370861,12.642807 7.14370861,13.9555556 Z" id="path-1"></path>
        <path d="M2.96503311,0.762573099 L35.8715232,0.762573099 C37.014702,0.769122807 37.9372185,1.70760234 37.9372185,2.86128655 L37.9372185,24.5071345 C37.9372185,25.6664327 37.0063576,26.6049123 35.8576159,26.6049123 L25.2157616,26.6049123 L19.9801325,31.888655 L14.7472848,26.6049123 L2.96503311,26.6049123 C1.81721854,26.6049123 0.884503311,25.6664327 0.884503311,24.5071345 L0.884503311,2.86128655 C0.884503311,1.7019883 1.81721854,0.762573099 2.96503311,0.762573099 Z M26.2170861,13.9555556 C26.2170861,15.2683041 27.2712583,16.3312281 28.5711258,16.3312281 C29.8719205,16.3312281 30.9242384,15.2683041 30.9242384,13.9555556 C30.9242384,12.642807 29.8719205,11.5808187 28.5711258,11.5808187 C27.2712583,11.5808187 26.2170861,12.642807 26.2170861,13.9555556 Z M17.0623841,13.9555556 C17.0623841,15.2683041 18.1174834,16.3312281 19.4182781,16.3312281 C20.7172185,16.3312281 21.7723179,15.2683041 21.7723179,13.9555556 C21.7723179,12.642807 20.7172185,11.5808187 19.4182781,11.5808187 C18.1174834,11.5808187 17.0623841,12.642807 17.0623841,13.9555556 Z M7.90953642,13.9555556 C7.90953642,15.2683041 8.96463576,16.3312281 10.2635762,16.3312281 C11.5643709,16.3312281 12.618543,15.2683041 12.618543,13.9555556 C12.618543,12.642807 11.5643709,11.5808187 10.2635762,11.5808187 C8.96463576,11.5808187 7.90953642,12.642807 7.90953642,13.9555556 Z" id="path-3"></path>
        <path d="M17.6872848,3.26081871 C20.0756291,1.50081871 22.9470199,0.563274854 25.9695364,0.563274854 C29.0050331,0.563274854 32.0822517,1.61777778 34.634702,3.5302924 C37.2891391,5.64865497 39.1684768,8.64280702 39.826755,11.7735673 L40.3607947,14.0930994 C41.1989404,17.7469006 40.4859603,21.8226901 38.4527152,24.9927485 L35.9688742,28.9880702 L39.7442384,30.1267836 C44.1278146,31.5265497 47.8262252,34.6095906 49.9104636,38.5927485 L50.1264901,39.1363743 L51.6980132,43.5873684 C52.5037086,45.8273684 52.1717881,48.2526316 50.7847682,50.234386 C49.4849007,52.1300585 47.2764238,53.2687719 44.8880795,53.2687719 L7.35788079,53.2687719 C4.9992053,53.2687719 2.77960265,52.1328655 1.42317881,50.2315789 C0.102913907,48.2928655 -0.24013245,45.7412865 0.509006623,43.5490058 L2.24370861,38.7752047 L2.40317881,38.6049123 C4.58291391,34.4907602 8.1997351,31.4994152 12.5796026,30.2025731 L16.3540397,29.065731 L13.6402649,24.6830409 C11.7433113,21.6963743 11.0080795,18.0940351 11.5801325,14.5534503 L11.9231788,12.5061988 C12.6213245,8.67181287 14.6656954,5.39602339 17.6872848,3.26081871 Z M3.69748344,48.6175439 C4.52728477,49.7796491 5.86887417,50.4617544 7.35788079,50.4617544 L44.8880795,50.4617544 C46.3854305,50.4617544 47.7038411,49.7927485 48.5058278,48.6250292 C49.3662252,47.3946199 49.5739073,45.9078363 49.0806623,44.537076 L47.4266225,39.8559064 C45.6761589,36.5426901 42.5803974,33.9752047 38.9255629,32.8093567 L31.670596,30.6217544 L36.1060927,23.4844444 C37.7490066,20.9216374 38.3229139,17.6552047 37.6525828,14.7284211 L37.1111258,12.3826901 C36.5798675,9.8554386 35.0621192,7.45076023 32.9435762,5.75906433 C30.9001325,4.22923977 28.4107285,3.37122807 25.9695364,3.37122807 C23.5394702,3.37122807 21.2345695,4.1225731 19.3042384,5.54385965 C16.8639735,7.26923977 15.2247682,9.90877193 14.6619868,12.9936842 L14.3235762,15.0138012 C13.8627815,17.8619883 14.4552318,20.7653801 15.990596,23.1822222 L20.646755,30.7003509 L13.3704636,32.8945029 C9.7007947,33.9808187 6.67364238,36.4893567 4.83695364,39.9625731 L4.65986755,40.2797661 L3.12913907,44.4893567 C2.67205298,45.8320468 2.88622517,47.4236257 3.69748344,48.6175439 Z" id="path-5"></path>
        <path d="M17.9923179,3.26081871 C20.3815894,1.50081871 23.2529801,0.563274854 26.2754967,0.563274854 C29.3091391,0.563274854 32.3863576,1.61777778 34.9397351,3.5302924 C37.593245,5.64865497 39.4725828,8.64280702 40.1317881,11.7735673 L40.666755,14.0930994 C41.5049007,17.7487719 40.7900662,21.8226901 38.7568212,24.9927485 L36.2748344,28.9880702 L40.0501987,30.1267836 C44.4319205,31.5246784 48.1303311,34.6095906 50.2164238,38.5927485 L50.4343046,39.1419883 L52.0039735,43.5864327 C52.8096689,45.8273684 52.4768212,48.2535673 51.0888742,50.234386 C49.7899338,52.1300585 47.5833113,53.2687719 45.1940397,53.2687719 L7.66384106,53.2687719 C5.30516556,53.2687719 3.08556291,52.1328655 1.72821192,50.2315789 C0.408874172,48.2909942 0.0658278146,45.7412865 0.814966887,43.5490058 L2.54966887,38.7723977 L2.70913907,38.6030409 C4.88980132,34.4870175 8.50662252,31.4994152 12.8855629,30.2025731 L16.66,29.065731 L13.9443709,24.6849123 C12.0474172,21.6963743 11.3131126,18.0940351 11.8851656,14.5534503 L12.2291391,12.5061988 C12.9272848,8.67181287 14.9716556,5.39602339 17.9923179,3.26081871 Z M4.00344371,48.6175439 C4.83324503,49.7796491 6.17483444,50.4617544 7.66384106,50.4617544 L45.1940397,50.4617544 C46.6923179,50.4617544 48.0098013,49.7927485 48.8099338,48.6250292 C49.6721854,47.3946199 49.8798675,45.9078363 49.3866225,44.537076 L47.7325828,39.8559064 C45.9811921,36.5426901 42.8845033,33.9752047 39.2315232,32.8093567 L31.9756291,30.6217544 L36.4111258,23.4863158 C38.0549669,20.9216374 38.6288742,17.6552047 37.958543,14.7284211 L37.4170861,12.3826901 C36.8849007,9.8554386 35.3680795,7.45076023 33.2495364,5.75906433 C31.2042384,4.22923977 28.7166887,3.37122807 26.2754967,3.37122807 C23.8454305,3.37122807 21.5405298,4.1225731 19.6092715,5.54385965 C17.1699338,7.26923977 15.5298013,9.90877193 14.9670199,12.9936842 L14.6295364,15.0138012 C14.1687417,17.8619883 14.7602649,20.7653801 16.294702,23.1822222 L20.9527152,30.7003509 L13.6754967,32.8945029 C10.0058278,33.979883 6.97774834,36.4893567 5.14291391,39.9625731 L4.96397351,40.2835088 L3.43509934,44.4893567 C2.97708609,45.8301754 3.19033113,47.4236257 4.00344371,48.6175439 Z" id="path-7"></path>
    </defs>
    <g id="Page-1" stroke="none" stroke-width="1" fill="none" fill-rule="evenodd">
        <g id="Landing-Copy-3" transform="translate(-213.000000, -1493.000000)">
            <g id="HOW-IT-WORKS-Copy" transform="translate(55.000000, 1255.000000)">
                <g id="Feedback" transform="translate(158.000000, 238.000000)">
                    <polygon id="Fill-1" fill="#61C2C7" points="0.119602649 40.3052164 0.119602649 119.973053 69.6550993 159.805567 139.191523 119.973053 139.191523 40.3052164 69.6550993 0.471766082"></polygon>
                    <polygon id="Fill-2" fill="#61C2C7" points="0.119324503 40.306152 0.119324503 119.973988 69.6548212 159.805567 139.190318 119.973988 139.190318 40.306152 69.6548212 0.472701754"></polygon>
                    <polygon id="Fill-3" fill="#61C2C7" points="0.119417219 40.306152 0.119417219 119.973988 69.6549139 159.805567 139.191338 119.973988 139.191338 40.306152 69.6549139 0.473637427"></polygon>
                    <g id="Group-6" transform="translate(12.980132, 49.319298)">
                        <mask id="mask-2" fill="white">
                            <use xlink:href="#path-1"></use>
                        </mask>
                        <g id="Clip-5"></g>
                        <polygon id="Fill-4" fill="#FFFFFF" mask="url(#mask-2)" points="-2.53761589 34.5674854 39.8276821 34.5674854 39.8276821 -1.91906433 -2.53761589 -1.91906433"></polygon>
                    </g>
                    <g id="Group-9" transform="translate(89.933775, 49.319298)">
                        <mask id="mask-4" fill="white">
                            <use xlink:href="#path-3"></use>
                        </mask>
                        <g id="Clip-8"></g>
                        <polygon id="Fill-7" fill="#FFFFFF" mask="url(#mask-4)" points="-1.77178808 34.5674854 40.5935099 34.5674854 40.5935099 -1.91906433 -1.77178808 -1.91906433"></polygon>
                    </g>
                    <path d="M4.66023841,128.896655 L3.13043709,133.107181 C2.67149669,134.448936 2.88659603,136.040515 3.6978543,137.235368 C4.52765563,138.397474 5.86924503,139.079579 7.35825166,139.079579 L44.8884503,139.079579 C46.3858013,139.079579 47.7051391,138.409637 48.5052715,137.241918 C49.366596,136.011509 49.573351,134.525661 49.0810331,133.153965 L47.4269934,128.473731 C45.6756026,125.159579 42.5798411,122.593029 38.9259338,121.427181 L31.6700397,119.238643 L36.1064636,112.102269 C37.7493775,109.539462 38.3232848,106.272094 37.6520265,103.34531 L37.1105695,101.000515 C36.5802384,98.4723275 35.0624901,96.0676491 32.9430199,94.3750175 C30.9005033,92.845193 28.4110993,91.988117 25.9689801,91.988117 C23.5398411,91.988117 21.2349404,92.739462 19.3036821,94.1616842 C16.8643444,95.8861287 15.2242119,98.5265965 14.6623576,101.610573 L14.3230199,103.631626 C13.8640795,106.478877 14.4546755,109.383205 15.9900397,111.800047 L20.6471258,119.318175 L13.3699073,121.511392 C9.70116556,122.598643 6.67308609,125.107181 4.8373245,128.579462 L4.66023841,128.896655 Z M44.8884503,141.886596 L7.35825166,141.886596 C4.99864901,141.886596 2.77997351,140.75069 1.42262252,138.848468 C0.103284768,136.908819 -0.238834437,134.358175 0.509377483,132.165895 L2.24500662,127.393029 L2.40354967,127.221801 C4.58235762,123.107649 8.19917881,120.11724 12.5799735,118.820398 L16.3534834,117.68262 L13.6406358,113.300865 C11.742755,110.314199 11.0084503,106.71186 11.5795762,103.171275 L11.9235497,101.122152 C12.6207682,97.2887018 14.6660662,94.0129123 17.6867285,91.8786433 C20.0750728,90.1195789 22.9473907,89.1810994 25.9689801,89.1810994 C29.005404,89.1810994 32.0826225,90.2346667 34.6350728,92.148117 C37.2885828,94.2655439 39.1688477,97.2606316 39.8261987,100.390456 L40.3611656,102.709988 C41.1993113,106.364725 40.4863311,110.438643 38.4521589,113.610573 L35.969245,117.605895 L39.7436821,118.744608 C44.1272583,120.143439 47.826596,123.22648 49.9117616,127.210573 L50.1268609,127.753263 L51.6983841,132.204257 C52.5040795,134.445193 52.1712318,136.86952 50.7851391,138.851275 C49.4843444,140.747883 47.2767947,141.886596 44.8884503,141.886596 L44.8884503,141.886596 Z" id="Fill-10" fill="#FFFFFF"></path>
                    <g id="Group-15" transform="translate(0.000000, 88.617544)">
                        <mask id="mask-6" fill="white">
                            <use xlink:href="#path-5"></use>
                        </mask>
                        <g id="Clip-13"></g>
                        <path d="M-908.609272,3858.71345 L793.94649,3858.71345 L793.94649,-1849.55509 L-908.609272,-1849.55509 L-908.609272,3858.71345 Z M-911.390728,3861.52047 L796.727947,3861.52047 L796.727947,-1852.36211 L-911.390728,-1852.36211 L-911.390728,3861.52047 Z" id="Fill-12" fill="#FFFFFF" mask="url(#mask-6)"></path>
                        <path d="M-3.34609272,56.7616374 L55.5864901,56.7616374 L55.5864901,-2.9277193 L-3.34609272,-2.9277193 L-3.34609272,56.7616374 Z M-6.12754967,59.568655 L58.367947,59.568655 L58.367947,-5.73473684 L-6.12754967,-5.73473684 L-6.12754967,59.568655 Z" id="Fill-14" fill="#FFFFFF" mask="url(#mask-6)"></path>
                    </g>
                    <path d="M91.1892318,128.900304 L89.6603576,133.107088 C89.2023444,134.447906 89.4165166,136.040421 90.228702,137.235275 C91.0585033,138.39738 92.4000927,139.079485 93.8890993,139.079485 L131.419298,139.079485 C132.917576,139.079485 134.23506,138.41048 135.035192,137.24276 C135.897444,136.011415 136.104199,134.525567 135.611881,133.153871 L133.957841,128.473637 C132.205523,125.159485 129.109762,122.592936 125.456781,121.427088 L118.200887,119.23855 L122.636384,112.102175 C124.279298,109.539368 124.854132,106.272 124.182874,103.345216 L123.641417,101.000421 C123.110159,98.4722339 121.592411,96.0675556 119.473868,94.3758596 C117.430424,92.8450994 114.941947,91.9880234 112.499828,91.9880234 C110.070689,91.9880234 107.765788,92.7403041 105.83453,94.1615906 C103.395192,95.8860351 101.75506,98.5255673 101.193205,101.61048 L100.853868,103.631532 C100.394,106.478784 100.984596,109.383111 102.51996,111.799953 L107.177974,119.317146 L99.900755,121.512234 C96.2301589,122.597614 93.2030066,125.107088 91.367245,128.579368 L91.1892318,128.900304 Z M131.419298,141.886503 L93.8890993,141.886503 C91.5294967,141.886503 89.3108212,140.750596 87.9534702,138.848374 C86.6341325,136.908725 86.2910861,134.358082 87.039298,132.165801 L88.7749272,127.389193 L88.9334702,127.220772 C91.1159868,123.104749 94.7318808,120.116211 99.1108212,118.820304 L102.884331,117.682526 L100.170556,113.301708 C98.2726755,110.31317 97.5383709,106.71083 98.1104238,103.170246 L98.4543974,101.122994 C99.1516159,97.2886082 101.196914,94.0128187 104.217576,91.8785497 C106.605921,90.1194854 109.478238,89.1810058 112.499828,89.1810058 C115.534397,89.1810058 118.611616,90.2345731 121.165921,92.1480234 C123.818503,94.2654503 125.698768,97.260538 126.357046,100.390363 L126.892013,102.709895 C127.730159,106.365567 127.016252,110.439485 124.981152,113.61048 L122.500093,117.605801 L126.27453,118.744515 C130.657179,120.142409 134.356517,123.226386 136.442609,127.21048 L136.658636,127.759719 L138.229232,132.204164 C139.034,134.445099 138.702079,136.871298 137.314132,138.851181 C136.015192,140.747789 133.80857,141.886503 131.419298,141.886503 L131.419298,141.886503 Z" id="Fill-16" fill="#FFFFFF"></path>
                    <g id="Group-21" transform="translate(86.225166, 88.617544)">
                        <mask id="mask-8" fill="white">
                            <use xlink:href="#path-7"></use>
                        </mask>
                        <g id="Clip-19"></g>
                        <path d="M-908.303311,3858.71345 L794.25245,3858.71345 L794.25245,-1849.55509 L-908.303311,-1849.55509 L-908.303311,3858.71345 Z M-911.084768,3861.52047 L797.033907,3861.52047 L797.033907,-1852.36211 L-911.084768,-1852.36211 L-911.084768,3861.52047 Z" id="Fill-18" fill="#FFFFFF" mask="url(#mask-8)"></path>
                        <path d="M-3.0410596,56.7616374 L55.8915232,56.7616374 L55.8915232,-2.9277193 L-3.0410596,-2.9277193 L-3.0410596,56.7616374 Z M-5.8215894,59.568655 L58.6739073,59.568655 L58.6739073,-5.73473684 L-5.8215894,-5.73473684 L-5.8215894,59.568655 Z" id="Fill-20" fill="#FFFFFF" mask="url(#mask-8)"></path>
                    </g>
                    <g id="Group-30" transform="translate(53.774834, 39.962573)" fill="#FFFFFF">
                        <path d="M29.9482252,8.35845614 C16.2245166,2.48991813 5.67074172,6.4431345 2.7622649,7.79330994 L1.59961589,5.24453801 C4.76862252,3.7708538 16.2606755,-0.546339181 31.0329934,5.77412865 L29.9482252,8.35845614 Z" id="Fill-22"></path>
                        <polygon id="Fill-24" points="7.36882119 9.41791813 7.75822517 8.36528655 2.61623841 6.43592982 4.89796026 1.40107602 3.88458278 0.935111111 1.10683444 7.06750877"></polygon>
                        <path d="M16.2871921,45.8758363 C11.7728874,45.8758363 6.42692715,45.0430877 0.563615894,42.5354854 L1.64838411,39.9511579 C15.3702384,45.8215673 25.9258675,41.8664795 28.8343444,40.5153684 L29.9969934,43.0660117 C28.0861325,43.9539649 23.1453377,45.8758363 16.2871921,45.8758363" id="Fill-26"></path>
                        <polygon id="Fill-28" points="24.2279735 38.8916023 23.8385695 39.9442339 28.9805563 41.8735906 26.6988344 46.9084444 27.7122119 47.375345 30.4899603 41.2420117"></polygon>
                    </g>
                </g>
            </g>
        </g>
    </g>
</svg>

<svg width="140" height="160" viewBox="0 0 140 160" xmlns="http://www.w3.org/2000/svg" xmlns:xlink="http://www.w3.org/1999/xlink"><title>Feedback</title><defs><path d="M2.197.763h32.907A2.09 2.09 0 0 1 37.17 2.86v21.646c0 1.16-.93 2.098-2.08 2.098H24.45l-5.235 5.284-5.233-5.284H2.197a2.088 2.088 0 0 1-2.08-2.098V2.861c0-1.159.932-2.098 2.08-2.098zm23.254 13.193a2.363 2.363 0 0 0 2.353 2.375c1.3 0 2.354-1.063 2.354-2.375a2.364 2.364 0 0 0-2.354-2.375 2.362 2.362 0 0 0-2.353 2.375zm-9.154 0c0 1.312 1.055 2.375 2.353 2.375 1.3 0 2.356-1.063 2.356-2.375a2.365 2.365 0 0 0-2.356-2.375 2.363 2.363 0 0 0-2.353 2.375zm-9.153 0a2.364 2.364 0 0 0 2.354 2.375c1.3 0 2.353-1.063 2.353-2.375a2.362 2.362 0 0 0-2.353-2.375 2.363 2.363 0 0 0-2.354 2.375z" id="a"/><path d="M2.965.763h32.907a2.089 2.089 0 0 1 2.065 2.098v21.646c0 1.16-.93 2.098-2.08 2.098H25.217l-5.236 5.284-5.233-5.284H2.965a2.09 2.09 0 0 1-2.08-2.098V2.861A2.09 2.09 0 0 1 2.965.763zm23.252 13.193a2.365 2.365 0 0 0 2.354 2.375c1.3 0 2.353-1.063 2.353-2.375a2.362 2.362 0 0 0-2.353-2.375 2.364 2.364 0 0 0-2.354 2.375zm-9.155 0a2.366 2.366 0 0 0 2.356 2.375 2.365 2.365 0 0 0 2.354-2.375 2.364 2.364 0 0 0-2.354-2.375 2.365 2.365 0 0 0-2.356 2.375zm-9.152 0a2.365 2.365 0 0 0 2.354 2.375c1.3 0 2.355-1.063 2.355-2.375a2.364 2.364 0 0 0-2.355-2.375 2.364 2.364 0 0 0-2.354 2.375z" id="c"/><path d="M17.687 3.26C20.076 1.5 22.947.564 25.97.564c3.035 0 6.112 1.055 8.665 2.967 2.654 2.119 4.533 5.113 5.192 8.244l.534 2.32c.838 3.653.125 7.729-1.908 10.899l-2.484 3.995 3.775 1.139c4.384 1.4 8.082 4.483 10.166 8.466l.216.543 1.572 4.451c.806 2.24.474 4.666-.913 6.647-1.3 1.896-3.509 3.035-5.897 3.035H7.358a7.296 7.296 0 0 1-5.935-3.037c-1.32-1.94-1.663-4.49-.914-6.683l1.735-4.774.16-.17C4.582 34.49 8.2 31.499 12.58 30.203l3.774-1.137-2.714-4.383a14.553 14.553 0 0 1-2.06-10.13l.343-2.047c.698-3.834 2.743-7.11 5.764-9.245zM3.697 48.619c.83 1.162 2.172 1.844 3.66 1.844h37.531c1.497 0 2.816-.67 3.618-1.837.86-1.23 1.068-2.717.575-4.088l-1.654-4.681c-1.75-3.313-4.847-5.88-8.501-7.047l-7.255-2.187 4.435-7.138c1.643-2.562 2.217-5.829 1.547-8.756l-.542-2.345c-.531-2.528-2.049-4.932-4.167-6.624C30.9 4.23 28.41 3.371 25.97 3.371c-2.43 0-4.735.752-6.666 2.173-2.44 1.725-4.08 4.365-4.642 7.45l-.338 2.02a11.728 11.728 0 0 0 1.667 8.168l4.656 7.518-7.277 2.195c-3.67 1.086-6.696 3.594-8.533 7.068l-.177.317-1.53 4.21c-.458 1.342-.244 2.934.567 4.128z" id="e"/><path d="M17.992 3.26C20.382 1.5 23.253.564 26.275.564c3.034 0 6.111 1.055 8.665 2.967 2.653 2.119 4.533 5.113 5.192 8.244l.535 2.32c.838 3.655.123 7.729-1.91 10.899l-2.482 3.995 3.775 1.139c4.382 1.398 8.08 4.483 10.166 8.466l.218.549 1.57 4.444c.806 2.241.473 4.668-.915 6.648-1.3 1.896-3.506 3.035-5.895 3.035H7.664a7.3 7.3 0 0 1-5.936-3.037C.408 48.29.066 45.742.815 43.549l1.735-4.777.16-.169c2.18-4.116 5.797-7.104 10.176-8.4l3.774-1.137-2.716-4.381a14.56 14.56 0 0 1-2.059-10.132l.344-2.047c.698-3.834 2.743-7.11 5.763-9.245zM4.003 48.619c.83 1.162 2.172 1.844 3.66 1.844h37.531c1.498 0 2.816-.67 3.616-1.837.862-1.23 1.07-2.717.577-4.088l-1.654-4.681c-1.752-3.313-4.848-5.88-8.501-7.047l-7.256-2.187 4.435-7.136c1.644-2.564 2.218-5.83 1.548-8.758l-.542-2.345c-.532-2.528-2.049-4.932-4.167-6.624-2.046-1.53-4.533-2.388-6.975-2.388-2.43 0-4.734.752-6.666 2.173-2.44 1.725-4.08 4.365-4.642 7.45l-.337 2.02c-.461 2.848.13 5.751 1.665 8.168l4.658 7.518-7.278 2.195c-3.67 1.085-6.697 3.594-8.532 7.068l-.179.32-1.529 4.206c-.458 1.341-.245 2.935.568 4.129z" id="g"/></defs><g fill="none" fill-rule="evenodd"><path fill="#61C2C7" d="M.12 40.305v79.668l69.535 39.833 69.537-39.833V40.305L69.655.472z"/><path fill="#61C2C7" d="M.12 40.306v79.668l69.535 39.832 69.535-39.832V40.306L69.655.473z"/><path fill="#61C2C7" d="M.12 40.306v79.668l69.535 39.832 69.536-39.832V40.306L69.655.474z"/><g transform="translate(12.98 49.32)"><mask id="b" fill="#fff"><use xlink:href="#a"/></mask><path fill="#FFF" mask="url(#b)" d="M-2.538 34.567h42.366V-1.919H-2.538z"/></g><g transform="translate(89.934 49.32)"><mask id="d" fill="#fff"><use xlink:href="#c"/></mask><path fill="#FFF" mask="url(#d)" d="M-1.772 34.567h42.366V-1.919H-1.772z"/></g><path d="M4.66 128.897l-1.53 4.21c-.459 1.342-.243 2.934.568 4.128.83 1.162 2.171 1.845 3.66 1.845h37.53c1.498 0 2.817-.67 3.617-1.838.862-1.23 1.068-2.716.576-4.088l-1.654-4.68c-1.751-3.314-4.847-5.881-8.501-7.047l-7.256-2.188 4.436-7.137c1.643-2.563 2.217-5.83 1.546-8.757l-.541-2.344c-.53-2.529-2.049-4.933-4.168-6.626-2.042-1.53-4.532-2.387-6.974-2.387-2.43 0-4.734.751-6.665 2.174-2.44 1.724-4.08 4.365-4.642 7.449l-.339 2.02a11.739 11.739 0 0 0 1.667 8.169l4.657 7.518-7.277 2.193c-3.669 1.088-6.697 3.596-8.533 7.068l-.177.318zm40.228 12.99H7.358a7.297 7.297 0 0 1-5.935-3.039c-1.32-1.94-1.662-4.49-.914-6.682l1.736-4.773.159-.171c2.178-4.114 5.795-7.105 10.176-8.402l3.773-1.137-2.712-4.382a14.553 14.553 0 0 1-2.061-10.13l.344-2.049c.697-3.833 2.742-7.11 5.763-9.243 2.388-1.76 5.26-2.698 8.282-2.698 3.036 0 6.114 1.054 8.666 2.967 2.654 2.118 4.534 5.113 5.191 8.242l.535 2.32c.838 3.655.125 7.729-1.909 10.9l-2.483 3.996 3.775 1.139c4.383 1.398 8.083 4.481 10.168 8.466l.215.542 1.571 4.451c.806 2.241.473 4.666-.913 6.647-1.3 1.897-3.508 3.036-5.897 3.036z" fill="#FFF"/><g transform="translate(0 88.618)"><mask id="f" fill="#fff"><use xlink:href="#e"/></mask><path d="M-908.61 3858.713H793.947v-5708.268H-908.609v5708.268zm-2.78 2.807H796.727v-5713.882H-911.391V3861.52z" fill="#FFF" mask="url(#f)"/><path d="M-3.346 56.762h58.932v-59.69H-3.346v59.69zm-2.782 2.807h64.496V-5.735H-6.128V59.57z" fill="#FFF" mask="url(#f)"/></g><path d="M91.19 128.9l-1.53 4.207c-.458 1.34-.243 2.933.569 4.128.83 1.162 2.171 1.844 3.66 1.844h37.53c1.499 0 2.816-.669 3.616-1.836.862-1.232 1.07-2.717.577-4.09l-1.654-4.68c-1.752-3.314-4.848-5.88-8.501-7.046l-7.256-2.188 4.435-7.137c1.643-2.563 2.218-5.83 1.547-8.757L123.64 101c-.53-2.528-2.049-4.932-4.167-6.624-2.044-1.53-4.532-2.388-6.974-2.388-2.43 0-4.734.752-6.665 2.174-2.44 1.724-4.08 4.364-4.642 7.448l-.34 2.022c-.459 2.847.132 5.751 1.667 8.168l4.658 7.517-7.277 2.195c-3.67 1.086-6.698 3.595-8.534 7.067l-.178.321zm40.23 12.987H93.89a7.297 7.297 0 0 1-5.937-3.039c-1.319-1.94-1.662-4.49-.914-6.682l1.736-4.777.158-.168c2.183-4.116 5.799-7.105 10.178-8.4l3.773-1.138-2.713-4.381a14.555 14.555 0 0 1-2.06-10.132l.343-2.047c.698-3.834 2.743-7.11 5.764-9.244 2.388-1.76 5.26-2.698 8.282-2.698 3.034 0 6.112 1.054 8.666 2.967 2.653 2.117 4.533 5.113 5.191 8.242l.535 2.32c.838 3.656.124 7.73-1.91 10.9l-2.482 3.996 3.775 1.139c4.382 1.397 8.082 4.481 10.168 8.465l.216.55 1.57 4.444c.805 2.241.473 4.667-.915 6.647-1.299 1.897-3.505 3.036-5.895 3.036z" fill="#FFF"/><g transform="translate(86.225 88.618)"><mask id="h" fill="#fff"><use xlink:href="#g"/></mask><path d="M-908.303 3858.713H794.252v-5708.268H-908.303v5708.268zm-2.782 2.807H797.034v-5713.882H-911.085V3861.52z" fill="#FFF" mask="url(#h)"/><path d="M-3.041 56.762h58.933v-59.69H-3.041v59.69zm-2.78 2.807h64.495V-5.735H-5.822V59.57z" fill="#FFF" mask="url(#h)"/></g><g fill="#FFF"><path d="M83.723 48.321C70 42.452 59.446 46.406 56.537 47.756l-1.163-2.549c3.17-1.474 14.662-5.79 29.434.53l-1.085 2.584z"/><path d="M61.144 49.38l.39-1.052-5.143-1.93 2.282-5.034-1.014-.466-2.777 6.132zM70.062 85.838c-4.514 0-9.86-.832-15.724-3.34l1.085-2.584c13.722 5.87 24.278 1.915 27.186.564l1.163 2.55c-1.911.889-6.852 2.81-13.71 2.81"/><path d="M78.003 78.854l-.39 1.053 5.142 1.93-2.281 5.034 1.013.467 2.778-6.133z"/></g></g></svg>
